src/assets/duotone/Speaker.svg

<svg width="24" height="24" viewBox="0 0 24 24"  xmlns="http://www.w3.org/2000/svg">
<path d="M12 18C13.6569 18 15 16.6569 15 15C15 13.3431 13.6569 12 12 12C10.3431 12 9 13.3431 9 15C9 16.6569 10.3431 18 12 18Z" />
<path d="M12 9C12.8284 9 13.5 8.32843 13.5 7.5C13.5 6.67157 12.8284 6 12 6C11.1716 6 10.5 6.67157 10.5 7.5C10.5 8.32843 11.1716 9 12 9Z" />
<path opacity="0.4" d="M15.0001 1.62012H9.00012C5.81012 1.62012 4.62012 2.81012 4.62012 6.00012V18.0001C4.62012 21.1901 5.81012 22.3801 9.00012 22.3801H15.0001C18.1901 22.3801 19.3801 21.1901 19.3801 18.0001V6.00012C19.3801 2.81012 18.1901 1.62012 15.0001 1.62012ZM12.0001 6.00012C12.8301 6.00012 13.5001 6.67012 13.5001 7.50012C13.5001 8.33012 12.8301 9.00012 12.0001 9.00012C11.1701 9.00012 10.5001 8.33012 10.5001 7.50012C10.5001 6.67012 11.1701 6.00012 12.0001 6.00012ZM12.0001 18.0001C10.3401 18.0001 9.00012 16.6601 9.00012 15.0001C9.00012 13.3401 10.3401 12.0001 12.0001 12.0001C13.6601 12.0001 15.0001 13.3401 15.0001 15.0001C15.0001 16.6601 13.6601 18.0001 12.0001 18.0001Z" />
</svg>

<?xml version="1.0" encoding="UTF-8"?>
<svg width="24" height="24" viewBox="0 0 24 24" xmlns="http://www.w3.org/2000/svg">
 <path d="m12 18c1.6569 0 3-1.3431 3-3s-1.3431-3-3-3-3 1.3431-3 3 1.3431 3 3 3z"/>
 <path d="m12 9c0.8284 0 1.5-0.67157 1.5-1.5s-0.6716-1.5-1.5-1.5-1.5 0.67157-1.5 1.5 0.6716 1.5 1.5 1.5z"/>
 <path d="m15 1.6201h-6c-3.19 0-4.38 1.19-4.38 4.38v12c0 3.19 1.19 4.38 4.38 4.38h6c3.19 0 4.38-1.19 4.38-4.38v-12c0-3.19-1.19-4.38-4.38-4.38zm-3 4.38c0.83 0 1.5 0.67 1.5 1.5s-0.67 1.5-1.5 1.5-1.5-0.67-1.5-1.5 0.67-1.5 1.5-1.5zm0 12c-1.66 0-3-1.34-3-3s1.34-3 3-3 3 1.34 3 3-1.34 3-3 3z" opacity=".4"/>
</svg>
